image/icon/StormcloakCamp.svg

<!--version="1.0" encoding="UTF-8"--><svg version="1.1" id="Layer_1" xmlns="http://www.w3.org/2000/svg" width="33" height="40" xml:space="preserve"><g id="PathID_107" transform="matrix(1, 0, 0, 1, 16.5, 19.85)"><path style="fill: rgb(0, 0, 0); fill-opacity: 1;" d="m12.1-14.05.15.2.85 2 .15.45 1.1 4.25q1.1 1.2 1.75 2.95.65 2 .2 3.95-.45 1.9-1.75 2.9l-1 .55q1.7 2.2 1.7 3.95.05 1.6-.7 2.85l-1.35 1.65q-.9.8-1.15 1.35l-.5 1.3-1.7 3.45Q8.5 19.6 6.55 19.8l-1.8.1Q2 19.9-.2 18.8l-3.35-2.35q-2.05-1.7-3.25-2.15l-.5-.15q-6.5-1.85-7.85-5.1-.95-2.25.35-4.8l.3-.5q-.85-.4-1.4-1.4-.7-1.25-.6-3.35.05-1.75.5-3.2.65-1.75 1.7-2.9l1.3-4.75.6-1.7.15-.3q.75-1.3 1.9-1.4h.2q.9 0 1.5.7 1.6-3.75 3.95-4.05h.25q.7 0 1.3.5.1-.85.85-1.4l1.1-.35q1.55 0 3.1 2.7l.25-.5q.55-.8 1.55-.8h.2q2.7.3 4.45 4.55l.35-.55q.65-.65 1.5-.65h.15q1 .05 1.75 1.05m-7.6.6v1.6l-.2 2.5-.3.15q-.9.8-.85 3.45.1 2.8 1.4 3.8.7.55 1.85.6 1.2.1 1.6-.5Q8.85-3 9.05-5.8q.35-2.6-1-3.7l-.7-.2-.25-2.15-.25-.65-.55-1.35q-1.15-2.45-2.6-2.6-.15 0 .2 1l.5 1.6.1.4M1.05-14.5l-1.2-2.25Q-1-18-1.25-17.85l.05 1.2q.25 1.3.05 2.25l-.1.55L-1.7-12v.15l-.25 1.8-.2.2q-1.1 1.35-1 3.85Q-3-3.5-1.9-3q1.8.75 3.3-.9.9-1 1.25-3 .4-2.1-.3-3.2l-.9-.85v-.9l-.2-2-.2-.65M10-10.8l.35 4.25q-.7.65-1.1 3-.3 2.1-.15 3.5.1 1.05 1.7 1.6 1.65.55 2.65-.2.85-.65 1.1-2.05.25-1.35-.2-2.75-.65-1.8-1.7-2.65l-1.15-4.6-.4-1.15q-.55-1.2-.9-1.25-.3-.05-.25 1.25L10-10.8m3.4 18.15q0-2.4-4.25-5.8-3.9-3.05-6.5-3.65-2.45-.55-5.15.65-1.55.65-4.35 2.6l-3.4 1.55q-1.95.8-2.9 2.55-1.8 3.4 2.05 5.65 2 1.15 4.95 1.85L-.9 16.4q3.05 2.2 7.25 1.75Q7.8 18 8.85 16l1.55-3.6q.35-.7 1.9-2.3 1.15-1.15 1.1-2.75m-18.6-21.2.55-1.75q.35-1 .2-1-1.3.15-2.4 2.75l-.3.65-.45 1.35q-.6 1.85-.6 3.2-.65 1-.65 2.65l.4 2.65q.4 1.35 1 2.05.55.65 1.75.2 1.05-.35 1.6-1 .7-.85.7-3.5 0-2.3-.55-3.4-.45-.95-1.5-1.1l.1-1.75.1-1.7.05-.3m-7.45 7.8q-1.05 1-1.55 2.6-.55 1.6-.45 3.4.1 2.1 1.1 2.35l1.4-.15.85-.65 1.15-.25 1-.65q.45-.7.05-3.8-.45-3.25-1.45-3.55h-.15l.5-4.15.15-.95q.15-1.45-.15-1.4l-.75 1.4-1.7 5.8"/><path style="fill: rgb(255, 255, 255); fill-opacity: 1;" d="m4.4-13.85-.5-1.6q-.35-1-.2-1 1.45.15 2.6 2.6l.55 1.35.25.65.25 2.15.7.2q1.35 1.1 1 3.7Q8.85-3 8-1.85q-.4.6-1.6.5-1.15-.05-1.85-.6-1.3-1-1.4-3.8Q3.1-8.4 4-9.2l.3-.15.2-2.5v-1.6l-.1-.4m-3.15 0 .2 2v.9l.9.85q.7 1.1.3 3.2-.35 2-1.25 3-1.5 1.65-3.3.9-1.1-.5-1.25-3-.1-2.5 1-3.85l.2-.2.25-1.8V-12l.45-1.85.1-.55q.2-.95-.05-2.25l-.05-1.2q.25-.15 1.1 1.1l1.2 2.25.2.65m8.7 2q-.05-1.3.25-1.25.35.05.9 1.25l.4 1.15 1.15 4.6q1.05.85 1.7 2.65.45 1.4.2 2.75-.25 1.4-1.1 2.05-1 .75-2.65.2Q9.2 1 9.1-.05q-.15-1.4.15-3.5.4-2.35 1.1-3L10-10.8l-.05-1.05M12.3 10.1q-1.55 1.6-1.9 2.3L8.85 16q-1.05 2-2.5 2.15-4.2.45-7.25-1.75l-5.25-3.65q-2.95-.7-4.95-1.85-3.85-2.25-2.05-5.65.95-1.75 2.9-2.55l3.4-1.55q2.8-1.95 4.35-2.6 2.7-1.2 5.15-.65 2.6.6 6.5 3.65 4.25 3.4 4.25 5.8.05 1.6-1.1 2.75M-5.25-13.55l-.1 1.7-.1 1.75q1.05.15 1.5 1.1.55 1.1.55 3.4 0 2.65-.7 3.5-.55.65-1.6 1-1.2.45-1.75-.2-.6-.7-1-2.05L-8.85-6q0-1.65.65-2.65 0-1.35.6-3.2l.45-1.35.3-.65q1.1-2.6 2.4-2.75.15 0-.2 1l-.55 1.75-.05.3m-5.7 1.7.75-1.4q.3-.05.15 1.4l-.15.95-.5 4.15h.15q1 .3 1.45 3.55.4 3.1-.05 3.8l-1 .65-1.15.25-.85.65-1.4.15q-1-.25-1.1-2.35-.1-1.8.45-3.4.5-1.6 1.55-2.6l1.7-5.8"/></g></svg>

<?xml version="1.0" encoding="UTF-8"?>
<svg version="1.1" id="Layer_1" xmlns="http://www.w3.org/2000/svg" xmlns:xlink="http://www.w3.org/1999/xlink" width="33px" height="40px" xml:space="preserve">
<g id="PathID_107" transform="matrix(1, 0, 0, 1, 16.5, 19.85)">
<path style="fill:#000000;fill-opacity:1" d="M12.1 -14.05L12.25 -13.85L13.1 -11.85L13.25 -11.4L14.35 -7.15Q15.45 -5.95 16.1 -4.2Q16.75 -2.2 16.3 -0.25Q15.85 1.65 14.55 2.65L13.55 3.2Q15.25 5.4 15.25 7.15Q15.3 8.75 14.55 10L13.2 11.65Q12.3 12.45 12.05 13L11.55 14.3L9.85 17.75Q8.5 19.6 6.55 19.8L4.75 19.9Q2 19.9 -0.2 18.8L-3.55 16.45Q-5.6 14.75 -6.8 14.3L-7.3 14.15Q-13.8 12.3 -15.15 9.05Q-16.1 6.8 -14.8 4.25L-14.5 3.75Q-15.35 3.35 -15.9 2.35Q-16.6 1.1 -16.5 -1Q-16.45 -2.75 -16 -4.2Q-15.35 -5.95 -14.3 -7.1L-13 -11.85L-12.4 -13.55L-12.25 -13.85Q-11.5 -15.15 -10.35 -15.25L-10.15 -15.25Q-9.25 -15.25 -8.65 -14.55Q-7.05 -18.3 -4.7 -18.6L-4.45 -18.6Q-3.75 -18.6 -3.15 -18.1Q-3.05 -18.95 -2.3 -19.5L-1.2 -19.85Q0.35 -19.85 1.9 -17.15L2.15 -17.65Q2.7 -18.45 3.7 -18.45L3.9 -18.45Q6.6 -18.15 8.35 -13.9L8.7 -14.45Q9.35 -15.1 10.2 -15.1L10.35 -15.1Q11.35 -15.05 12.1 -14.05M4.5 -13.45L4.5 -11.85L4.3 -9.35L4 -9.2Q3.1 -8.4 3.15 -5.75Q3.25 -2.95 4.55 -1.95Q5.25 -1.4 6.4 -1.35Q7.6 -1.25 8 -1.85Q8.85 -3 9.05 -5.8Q9.4 -8.4 8.05 -9.5L7.35 -9.7L7.1 -11.85L6.85 -12.5L6.3 -13.85Q5.15 -16.3 3.7 -16.45Q3.55 -16.45 3.9 -15.45L4.4 -13.85L4.5 -13.45M1.05 -14.5L-0.15 -16.75Q-1 -18 -1.25 -17.85L-1.2 -16.65Q-0.95 -15.35 -1.15 -14.4L-1.25 -13.85L-1.7 -12L-1.7 -11.85L-1.95 -10.05L-2.15 -9.85Q-3.25 -8.5 -3.15 -6Q-3 -3.5 -1.9 -3Q-0.1 -2.25 1.4 -3.9Q2.3 -4.9 2.65 -6.9Q3.05 -9 2.35 -10.1L1.45 -10.95L1.45 -11.85L1.25 -13.85L1.05 -14.5M10 -10.8L10.35 -6.55Q9.65 -5.9 9.25 -3.55Q8.95 -1.45 9.1 -0.05Q9.2 1 10.8 1.55Q12.45 2.1 13.45 1.35Q14.3 0.7 14.55 -0.7Q14.8 -2.05 14.35 -3.45Q13.7 -5.25 12.65 -6.1L11.5 -10.7L11.1 -11.85Q10.55 -13.05 10.2 -13.1Q9.9 -13.15 9.95 -11.85L10 -10.8M13.4 7.35Q13.4 4.95 9.15 1.55Q5.25 -1.5 2.65 -2.1Q0.2 -2.65 -2.5 -1.45Q-4.05 -0.8 -6.85 1.15L-10.25 2.7Q-12.2 3.5 -13.15 5.25Q-14.95 8.65 -11.1 10.9Q-9.1 12.05 -6.15 12.75L-0.9 16.4Q2.15 18.6 6.35 18.15Q7.8 18 8.85 16L10.4 12.4Q10.75 11.7 12.3 10.1Q13.45 8.95 13.4 7.35M-5.2 -13.85L-4.65 -15.6Q-4.3 -16.6 -4.45 -16.6Q-5.75 -16.45 -6.85 -13.85L-7.15 -13.2L-7.6 -11.85Q-8.2 -10 -8.2 -8.65Q-8.85 -7.65 -8.85 -6L-8.45 -3.35Q-8.05 -2 -7.45 -1.3Q-6.9 -0.65 -5.7 -1.1Q-4.65 -1.45 -4.1 -2.1Q-3.4 -2.95 -3.4 -5.6Q-3.4 -7.9 -3.95 -9Q-4.4 -9.95 -5.45 -10.1L-5.35 -11.85L-5.25 -13.55L-5.2 -13.85M-12.65 -6.05Q-13.7 -5.05 -14.2 -3.45Q-14.75 -1.85 -14.65 -0.05Q-14.55 2.05 -13.55 2.3L-12.15 2.15L-11.3 1.5L-10.15 1.25L-9.15 0.6Q-8.7 -0.1 -9.1 -3.2Q-9.55 -6.45 -10.55 -6.75L-10.7 -6.75L-10.2 -10.9L-10.05 -11.85Q-9.9 -13.3 -10.2 -13.25L-10.95 -11.85L-12.65 -6.05"/>
<path style="fill:#FFFFFF;fill-opacity:1" d="M4.4 -13.85L3.9 -15.45Q3.55 -16.45 3.7 -16.45Q5.15 -16.3 6.3 -13.85L6.85 -12.5L7.1 -11.85L7.35 -9.7L8.05 -9.5Q9.4 -8.4 9.05 -5.8Q8.85 -3 8 -1.85Q7.6 -1.25 6.4 -1.35Q5.25 -1.4 4.55 -1.95Q3.25 -2.95 3.15 -5.75Q3.1 -8.4 4 -9.2L4.3 -9.35L4.5 -11.85L4.5 -13.45L4.4 -13.85M1.25 -13.85L1.45 -11.85L1.45 -10.95L2.35 -10.1Q3.05 -9 2.65 -6.9Q2.3 -4.9 1.4 -3.9Q-0.1 -2.25 -1.9 -3Q-3 -3.5 -3.15 -6Q-3.25 -8.5 -2.15 -9.85L-1.95 -10.05L-1.7 -11.85L-1.7 -12L-1.25 -13.85L-1.15 -14.4Q-0.95 -15.35 -1.2 -16.65L-1.25 -17.85Q-1 -18 -0.15 -16.75L1.05 -14.5L1.25 -13.85M9.95 -11.85Q9.9 -13.15 10.2 -13.1Q10.55 -13.05 11.1 -11.85L11.5 -10.7L12.65 -6.1Q13.7 -5.25 14.35 -3.45Q14.8 -2.05 14.55 -0.7Q14.3 0.7 13.45 1.35Q12.45 2.1 10.8 1.55Q9.2 1 9.1 -0.05Q8.95 -1.45 9.25 -3.55Q9.65 -5.9 10.35 -6.55L10 -10.8L9.95 -11.85M12.3 10.1Q10.75 11.7 10.4 12.4L8.85 16Q7.8 18 6.35 18.15Q2.15 18.6 -0.9 16.4L-6.15 12.75Q-9.1 12.05 -11.1 10.9Q-14.95 8.65 -13.15 5.25Q-12.2 3.5 -10.25 2.7L-6.85 1.15Q-4.05 -0.8 -2.5 -1.45Q0.2 -2.65 2.65 -2.1Q5.25 -1.5 9.15 1.55Q13.4 4.95 13.4 7.35Q13.45 8.95 12.3 10.1M-5.25 -13.55L-5.35 -11.85L-5.45 -10.1Q-4.4 -9.95 -3.95 -9Q-3.4 -7.9 -3.4 -5.6Q-3.4 -2.95 -4.1 -2.1Q-4.65 -1.45 -5.7 -1.1Q-6.9 -0.65 -7.45 -1.3Q-8.05 -2 -8.45 -3.35L-8.85 -6Q-8.85 -7.65 -8.2 -8.65Q-8.2 -10 -7.6 -11.85L-7.15 -13.2L-6.85 -13.85Q-5.75 -16.45 -4.45 -16.6Q-4.3 -16.6 -4.65 -15.6L-5.2 -13.85L-5.25 -13.55M-10.95 -11.85L-10.2 -13.25Q-9.9 -13.3 -10.05 -11.85L-10.2 -10.9L-10.7 -6.75L-10.55 -6.75Q-9.55 -6.45 -9.1 -3.2Q-8.7 -0.1 -9.15 0.6L-10.15 1.25L-11.3 1.5L-12.15 2.15L-13.55 2.3Q-14.55 2.05 -14.65 -0.05Q-14.75 -1.85 -14.2 -3.45Q-13.7 -5.05 -12.65 -6.05L-10.95 -11.85"/>
</g>
</svg>
